fan.svg

<svg fill="currentColor" viewBox="0 0 24 24"><path d="M12 11a1 1 0 0 0-1 1 1 1 0 0 0 1 1 1 1 0 0 0 1-1 1 1 0 0 0-1-1m.5-9c4.5 0 4.61 3.57 2.25 4.75-.99.49-1.43 1.54-1.62 2.47.48.2.9.51 1.22.91 3.7-2 7.68-1.21 7.68 2.37 0 4.5-3.57 4.6-4.75 2.23-.5-.99-1.56-1.43-2.49-1.62-.2.48-.51.89-.91 1.23 1.99 3.69 1.2 7.66-2.38 7.66-4.5 0-4.59-3.58-2.23-4.76.98-.49 1.42-1.53 1.62-2.45-.49-.2-.92-.52-1.24-.92C5.96 15.85 2 15.07 2 11.5 2 7 5.56 6.89 6.74 9.26c.5.99 1.55 1.42 2.48 1.61.19-.48.51-.9.92-1.22C8.15 5.96 8.94 2 12.5 2"/></svg>

<svg  viewBox="0 0 24 24" fill="currentColor"><path  d="M12,11A1,1 0 0,0 11,12A1,1 0 0,0 12,13A1,1 0 0,0 13,12A1,1 0 0,0 12,11M12.5,2C17,2 17.11,5.57 14.75,6.75C13.76,7.24 13.32,8.29 13.13,9.22C13.61,9.42 14.03,9.73 14.35,10.13C18.05,8.13 22.03,8.92 22.03,12.5C22.03,17 18.46,17.1 17.28,14.73C16.78,13.74 15.72,13.3 14.79,13.11C14.59,13.59 14.28,14 13.88,14.34C15.87,18.03 15.08,22 11.5,22C7,22 6.91,18.42 9.27,17.24C10.25,16.75 10.69,15.71 10.89,14.79C10.4,14.59 9.97,14.27 9.65,13.87C5.96,15.85 2,15.07 2,11.5C2,7 5.56,6.89 6.74,9.26C7.24,10.25 8.29,10.68 9.22,10.87C9.41,10.39 9.73,9.97 10.14,9.65C8.15,5.96 8.94,2 12.5,2Z"/></svg>
